editor/icons/icon_bezier_handles_free.svg

<svg height="16" viewBox="0 0 16 16" width="16" xmlns="http://www.w3.org/2000/svg"><path d="m1.7627119 13.627119s1.2881355-6.847458 6.5762712-8.1355935c5.0847459.9491522 5.9661009 8.1355925 5.9661009 8.1355925" fill="none" stroke="#84c2ff" stroke-miterlimit="4.9" stroke-width="1.7"/><ellipse cx="1.898304" cy="13.491526" fill="#e0e0e0" rx="1.267586" ry="1.199789"/><ellipse cx="14.237288" cy="13.491526" fill="#e0e0e0" rx="1.267586" ry="1.199789"/><path d="m7.6850253 4.7560401-3.776127.6607599" fill="none" stroke="#84c2ff" stroke-width=".805138"/><path d="m11.695505 2.3941651-2.999121 2.2935078" fill="none" stroke="#84c2ff" stroke-width=".730798"/><g fill="#e0e0e0"><ellipse cx="8.271187" cy="4.779661" rx="1.267586" ry="1.199789"/><path d="m2.4961199 4.3976698a1.1997888 1.2675855 80.074672 0 0 -1.0419038 1.3997559 1.1997888 1.2675855 80.074672 0 0 1.4553094.9627848 1.1997888 1.2675855 80.074672 0 0 1.0419037-1.3997558 1.1997888 1.2675855 80.074672 0 0 -1.4553093-.9627849zm.074974.4171488a.80148375.84677333 80.074672 0 1 .9729986.6426896.80148375.84677333 80.074672 0 1 -.6969432.934902.80148375.84677333 80.074672 0 1 -.9729958-.6426902.80148375.84677333 80.074672 0 1 .6969432-.934902z"/><path d="m11.838896.64428913a1.231838 1.2836218 52.593897 0 0 -.271701 1.75779027 1.231838 1.2836218 52.593897 0 0 1.767576.1983008 1.231838 1.2836218 52.593897 0 0 .271701-1.75779027 1.231838 1.2836218 52.593897 0 0 -1.767576-.1983008zm.265925.3444462a.82289328.85748593 52.593897 0 1 1.181294.13165847.82289328.85748593 52.593897 0 1 -.182417 1.1745241.82289328.85748593 52.593897 0 1 -1.181291-.1316609.82289328.85748593 52.593897 0 1 .182417-1.17452347z"/></g></svg>

<?xml version="1.0" encoding="UTF-8" standalone="no"?>
<svg
   xmlns:dc="http://purl.org/dc/elements/1.1/"
   xmlns:cc="http://creativecommons.org/ns#"
   xmlns:rdf="http://www.w3.org/1999/02/22-rdf-syntax-ns#"
   xmlns:svg="http://www.w3.org/2000/svg"
   xmlns="http://www.w3.org/2000/svg"
   xmlns:sodipodi="http://sodipodi.sourceforge.net/DTD/sodipodi-0.dtd"
   xmlns:inkscape="http://www.inkscape.org/namespaces/inkscape"
   width="16"
   height="16"
   version="1.1"
   viewBox="0 0 16 16"
   id="svg6"
   sodipodi:docname="icon_bezier_handles_separate.svg"
   inkscape:version="0.92.3 (2405546, 2018-03-11)">
  <metadata
     id="metadata12">
    <rdf:RDF>
      <cc:Work
         rdf:about="">
        <dc:format>image/svg+xml</dc:format>
        <dc:type
           rdf:resource="http://purl.org/dc/dcmitype/StillImage" />
        <dc:title></dc:title>
      </cc:Work>
    </rdf:RDF>
  </metadata>
  <defs
     id="defs10" />
  <sodipodi:namedview
     pagecolor="#ffffff"
     bordercolor="#666666"
     borderopacity="1"
     objecttolerance="10"
     gridtolerance="10"
     guidetolerance="10"
     inkscape:pageopacity="0"
     inkscape:pageshadow="2"
     inkscape:window-width="1417"
     inkscape:window-height="685"
     id="namedview8"
     showgrid="false"
     inkscape:zoom="20.85965"
     inkscape:cx="4.2910315"
     inkscape:cy="11.857644"
     inkscape:window-x="67"
     inkscape:window-y="27"
     inkscape:window-maximized="0"
     inkscape:current-layer="svg6" />
  <path
     style="fill:none;stroke:#84c2ff;stroke-width:1.70000005;stroke-linecap:butt;stroke-linejoin:miter;stroke-miterlimit:4.9000001;stroke-dasharray:none;stroke-opacity:1"
     d="m 1.7627119,13.627119 c 0,0 1.2881355,-6.847458 6.5762712,-8.1355935 5.0847459,0.9491522 5.9661009,8.1355925 5.9661009,8.1355925"
     id="path4526"
     inkscape:connector-curvature="0"
     sodipodi:nodetypes="ccc" />
  <ellipse
     style="fill:#e0e0e0;fill-opacity:1;stroke:none;stroke-width:5.64574671;stroke-miterlimit:4.9000001;stroke-dasharray:none;stroke-opacity:1"
     id="path5846"
     cx="1.8983043"
     cy="13.491526"
     rx="1.2675855"
     ry="1.1997888" />
  <ellipse
     style="fill:#e0e0e0;fill-opacity:1;stroke:none;stroke-width:5.64574671;stroke-miterlimit:4.9000001;stroke-dasharray:none;stroke-opacity:1"
     id="path5846-3"
     cx="14.237288"
     cy="13.491526"
     rx="1.2675855"
     ry="1.1997888" />
  <path
     style="fill:none;stroke:#84c2ff;stroke-width:0.80513805;stroke-linecap:butt;stroke-linejoin:miter;stroke-miterlimit:4;stroke-dasharray:none;stroke-opacity:1"
     d="M 7.6850253,4.7560401 3.9088983,5.4168"
     id="path5878"
     inkscape:connector-curvature="0" />
  <path
     style="fill:none;stroke:#84c2ff;stroke-width:0.73079807;stroke-linecap:butt;stroke-linejoin:miter;stroke-miterlimit:4;stroke-dasharray:none;stroke-opacity:1"
     d="M 11.695505,2.3941651 8.696384,4.6876729"
     id="path5878-7"
     inkscape:connector-curvature="0" />
  <ellipse
     style="fill:#e0e0e0;fill-opacity:1;stroke:none;stroke-width:5.64574671;stroke-miterlimit:4.9000001;stroke-dasharray:none;stroke-opacity:1"
     id="path5846-3-6"
     cx="8.2711868"
     cy="4.7796612"
     rx="1.2675855"
     ry="1.1997888" />
  <path
     style="fill:#e0e0e0;fill-opacity:1;stroke:none;stroke-width:5.64574671;stroke-miterlimit:4.9000001;stroke-dasharray:none;stroke-opacity:1"
     d="M 2.4961199,4.3976698 A 1.1997888,1.2675855 80.074672 0 0 1.4542161,5.7974257 1.1997888,1.2675855 80.074672 0 0 2.9095255,6.7602105 1.1997888,1.2675855 80.074672 0 0 3.9514292,5.3604547 1.1997888,1.2675855 80.074672 0 0 2.4961199,4.3976698 Z m 0.074974,0.4171488 A 0.80148375,0.84677333 80.074672 0 1 3.5440925,5.4575082 0.80148375,0.84677333 80.074672 0 1 2.8471493,6.3924102 0.80148375,0.84677333 80.074672 0 1 1.8741535,5.74972 0.80148375,0.84677333 80.074672 0 1 2.5710967,4.814818 Z"
     id="path5846-5"
     inkscape:connector-curvature="0" />
  <path
     inkscape:connector-curvature="0"
     style="fill:#e0e0e0;fill-opacity:1;stroke:none;stroke-width:5.7567277;stroke-miterlimit:4.9000001;stroke-dasharray:none;stroke-opacity:1"
     d="m 11.838896,0.64428913 a 1.231838,1.2836218 52.593897 0 0 -0.271701,1.75779027 1.231838,1.2836218 52.593897 0 0 1.767576,0.1983008 1.231838,1.2836218 52.593897 0 0 0.271701,-1.75779027 1.231838,1.2836218 52.593897 0 0 -1.767576,-0.1983008 z m 0.265925,0.3444462 A 0.82289328,0.85748593 52.593897 0 1 13.286115,1.1203938 0.82289328,0.85748593 52.593897 0 1 13.103698,2.2949179 0.82289328,0.85748593 52.593897 0 1 11.922407,2.163257 0.82289328,0.85748593 52.593897 0 1 12.104824,0.98873353 Z"
     id="path5846-5-6" />
</svg>
